X:1
T:First of September
B:Company of Fifers and Drummers, Vol 2
M:2/4
L:1/8
Q:1/8=200
K:D
|: dd dc/d/|Ad Af|ed cB|A/G/A/B/ A2|F/A/d/A/ F/A/d/A/|G/B/d/B/ G/B/d/B/|A/B/A/G/ F/G/F/E/|D2 D2:|
|: a>b a/b/a/g/|fd df|gf ed|c/d/e/c/ A2|a>b a/b/a/g/|fd df|g/b/a/g/ f/e/d/c/|d2 d2 :|
